categories/24/preferences-desktop-accessibility-symbolic.svg

<?xml version="1.0" encoding="UTF-8" standalone="no"?>
<svg
   xmlns:dc="http://purl.org/dc/elements/1.1/"
   xmlns:cc="http://creativecommons.org/ns#"
   xmlns:rdf="http://www.w3.org/1999/02/22-rdf-syntax-ns#"
   xmlns:svg="http://www.w3.org/2000/svg"
   xmlns="http://www.w3.org/2000/svg"
   id="svg7384"
   height="24"
   width="24"
   version="1.1">
  <title
     id="title9167">elementary Symbolic Icon Theme</title>
  <defs
     id="defs11" />
  <metadata
     id="metadata90">
    <rdf:RDF>
      <cc:Work
         rdf:about="">
        <dc:format>image/svg+xml</dc:format>
        <dc:type
           rdf:resource="http://purl.org/dc/dcmitype/StillImage" />
        <dc:title>elementary Symbolic Icon Theme</dc:title>
      </cc:Work>
    </rdf:RDF>
  </metadata>
  <path
     style="color:#bebebe;display:inline;overflow:visible;visibility:visible;fill:#bebebe;fill-opacity:1;fill-rule:nonzero;stroke:none;stroke-width:1;marker:none;enable-background:accumulate"
     id="path2990"
     d="m 12,4 c -4.418278,0 -8,3.581722 -8,8 0,4.418278 3.581722,8 8,8 4.418278,0 8,-3.581722 8,-8 0,-4.418278 -3.581722,-8 -8,-8 z m 0,2 c 3.313708,0 6,2.686291 6,6 0,3.313708 -2.686292,6 -6,6 C 8.6862915,18 6,15.313708 6,12 6,8.686291 8.6862915,6 12,6 Z" />
  <path
     id="path2986"
     d="M 12.0625 6.5 C 11.349478 6.5 10.78125 7.054708 10.78125 7.75 C 10.78125 8.445291 11.349478 9.03125 12.0625 9.03125 C 12.775522 9.03125 13.34375 8.445291 13.34375 7.75 C 13.34375 7.054708 12.775522 6.5 12.0625 6.5 z M 7.40625 9.09375 C 7.33635 9.08515 7.2821301 9.09525 7.21875 9.125 C 7.09199 9.184567 7.0017477 9.303153 7 9.4375 C 6.9984 9.571866 7.0935658 9.687478 7.21875 9.75 L 10.65625 10.8125 L 10.625 13.28125 L 9.40625 16.9375 C 9.2893824 17.104044 9.324703 17.295219 9.5 17.40625 C 9.6753044 17.517298 9.94562 17.47906 10.0625 17.3125 L 12 13.375 L 13.9375 17.3125 C 14.041388 17.485243 14.255704 17.536206 14.4375 17.4375 C 14.619297 17.33879 14.697634 17.141494 14.59375 16.96875 L 13.40625 13.28125 L 13.34375 11 L 16.84375 9.75 C 16.984644 9.65612 17.029775 9.465353 16.96875 9.3125 C 16.90772 9.15963 16.73347 9.075227 16.5625 9.09375 C 16.50276 9.10315 16.454633 9.12164 16.40625 9.15625 L 12 9.84375 L 7.625 9.15625 C 7.568278 9.11613 7.4761498 9.10234 7.40625 9.09375 z "
     style="color:#bebebe;display:inline;overflow:visible;visibility:visible;fill:#bebebe;fill-opacity:1;fill-rule:nonzero;stroke:none;stroke-width:1;marker:none;enable-background:accumulate" />
</svg>

<svg xmlns="http://www.w3.org/2000/svg" height="24" width="24">
    <title>
        elementary Symbolic Icon Theme
    </title>
    <path style="marker:none" d="M11.998 4c-4.423 0-8 3.576-8 8 0 4.424 3.577 8 8 8 4.424 0 8-3.576 8-8 0-4.424-3.576-8-8-8zm0 1c3.87 0 7 3.13 7 7s-3.13 7-7 7-7-3.13-7-7 3.13-7 7-7zm.065 1.5c-.714 0-1.282.555-1.282 1.25s.568 1.281 1.281 1.281c.714 0 1.282-.586 1.282-1.281s-.568-1.25-1.281-1.25zM7.405 9.094a.31.31 0 0 0-.187.031.361.361 0 0 0-.219.312c-.002.135.094.25.219.313l3.437 1.062-.031 2.47-1.219 3.655c-.117.167-.081.358.094.47.175.11.446.072.563-.095L12 13.376l1.938 3.938a.367.367 0 0 0 .5.125c.181-.1.26-.297.156-.47l-1.188-3.687L13.344 11l3.5-1.25a.368.368 0 0 0 .125-.438c-.061-.152-.236-.237-.321-.228L12 9.844z" color="#bebebe" overflow="visible" fill="#666"/>
</svg>
